resources/svg/whatsapp-header.svg

<svg class="w-[20px] md:w-[26px]" width="26" height="26" viewBox="0 0 26 26" fill="none" xmlns="http://www.w3.org/2000/svg">
    <g clip-path="url(#clip0_877_4838)">
        <path d="M0 4C0 1.79086 1.79086 0 4 0H22C24.2091 0 26 1.79086 26 4V22C26 24.2091 24.2091 26 22 26H4C1.79086 26 0 24.2091 0 22V4Z" fill="#1BD741"/>
        <path d="M5 21L6.12055 17.0245C5.39997 15.8017 5.02058 14.4103 5.02058 12.9811C5.02058 8.58029 8.60476 5 13.0103 5C17.4159 5 21 8.58029 21 12.9811C21 17.3819 17.4159 20.9621 13.0103 20.9621C11.6376 20.9621 10.2934 20.6111 9.10427 19.9446L5 21ZM9.3141 18.4927L9.55866 18.6418C10.5954 19.2741 11.789 19.6083 13.0103 19.6083C16.6685 19.6083 19.6447 16.6353 19.6447 12.9811C19.6447 9.32682 16.6685 6.35385 13.0103 6.35385C9.3521 6.35385 6.3759 9.32682 6.3759 12.9811C6.3759 14.2543 6.73818 15.4908 7.42347 16.5568L7.58817 16.813L6.94288 19.1024L9.3141 18.4927Z" fill="white"/>
        <path d="M10.7699 9.03085L10.2588 9.00099C10.0982 8.99161 9.94071 9.04909 9.81936 9.16203C9.57155 9.39259 9.17531 9.83833 9.0536 10.4192C8.87211 11.2852 9.15259 12.3458 9.8785 13.4063C10.6044 14.4668 11.9572 16.1636 14.3494 16.8884C15.1202 17.1219 15.7266 16.9644 16.1944 16.6438C16.565 16.3899 16.8204 15.9822 16.9125 15.5214L16.9941 15.113C17.02 14.9832 16.9585 14.8515 16.846 14.7959L15.1184 13.9428C15.0063 13.8874 14.8733 13.9224 14.7979 14.0272L14.1197 14.9691C14.0684 15.0403 13.9807 15.0685 13.9015 15.0387C13.4371 14.8638 11.8813 14.1657 11.0277 12.404C10.9907 12.3276 10.9999 12.2348 11.0524 12.1697L11.7005 11.3663C11.7668 11.2843 11.7835 11.169 11.7437 11.0693L10.999 9.2027C10.9594 9.10333 10.8705 9.03673 10.7699 9.03085Z" fill="white"/>
    </g>
    <defs>
        <clipPath id="clip0_877_4838">
            <rect width="26" height="26" fill="white"/>
        </clipPath>
    </defs>
</svg>

<svg class="w-[20px] md:w-[26px]" width="26" height="26" fill="none" xmlns="http://www.w3.org/2000/svg"><g clip-path="url(#a)"><path d="M0 4a4 4 0 0 1 4-4h18a4 4 0 0 1 4 4v18a4 4 0 0 1-4 4H4a4 4 0 0 1-4-4V4Z" fill="#1BD741"/><path d="m5 21 1.1-4a8 8 0 1 1 3 3L5 21Zm4.3-2.5.3.1a6.6 6.6 0 1 0-2.2-2l.2.2-.7 2.3 2.4-.6Z" fill="#fff"/><path d="M10.8 9h-.5c-.2 0-.4 0-.5.2-.2.2-.6.6-.7 1.2-.2.9 0 2 .8 3 .7 1 2 2.8 4.4 3.5a2 2 0 0 0 1.9-.3c.4-.2.6-.6.7-1v-.8l-1.8-.9-.3.1-.7 1H14c-.5-.1-2-.8-2.9-2.6v-.2l.7-.8V11L11 9.2l-.2-.2Z" fill="#fff"/></g><defs><clipPath id="a"><path fill="#fff" d="M0 0h26v26H0z"/></clipPath></defs></svg>
